X:235
T: Convent Reel
S: Treoir
C: Noel Strange
Z: B.Black
M: 4/4
L: 1/8
R: reel
K: D
DFEG FDDf | afef dBBd | Ad d2 fddB | AFDE FEEF |
DFEG FDDf | afef dB B2 | fd d2 BG G2 | AFEG FD D2 :|
afdf gfef | afdf edBd | Ad d2 dfaf | edef efge |
afdf gfef | afdf edBd | DF F2 Ad d2 | Bgec d2 :|
